X:1
T:Green Hills. WHL.[186]
T:Green Hills. WHL.[186]
T:Gioacchino Rossini
C:Gioacchino Rossini
L:1/8
Q:3/8=75
M:6/8
K:C
V:1 treble 
V:1
 Gcd | e3 cef | g2 a e2 a | gec Gcd | e3 ceg | g3 aea | gfe Gcd | c3 || g3 | c'4 ba | ag g2 ag | %11
 gf f2 gf | fe e2 g2 | c'4 ba | ag g2 ag | f3 def | g3 dbg | a3 dfd | g3 dbg | a3 dfd | gaf aga | %21
 fge gdg | c3 || Gcd | e3 BaB | e3 fed | c3 GeG | c3 || g3 | c'4 ba | ag g2 ag | gf f2 gf | %32
 fe e2 g2 | c'4 ba | ag g2 ag | gf"^*" f2 b2 | c'6 |] %37

